actions/48/media-record.svg

<?xml version="1.0" encoding="UTF-8" standalone="no"?>
<svg
   xmlns:dc="http://purl.org/dc/elements/1.1/"
   xmlns:cc="http://creativecommons.org/ns#"
   xmlns:rdf="http://www.w3.org/1999/02/22-rdf-syntax-ns#"
   xmlns:svg="http://www.w3.org/2000/svg"
   xmlns="http://www.w3.org/2000/svg"
   xmlns:xlink="http://www.w3.org/1999/xlink"
   version="1.1"
   width="48"
   height="48"
   id="svg3047">
  <defs
     id="defs3049">
    <linearGradient
       x1="71.204002"
       y1="6.2375998"
       x2="71.204002"
       y2="44.341"
       id="linearGradient3403"
       gradientUnits="userSpaceOnUse"
       gradientTransform="translate(-47.733515,-0.3572398)">
      <stop
         id="stop4013"
         style="stop-color:#ffffff;stop-opacity:1"
         offset="0" />
      <stop
         id="stop4015"
         style="stop-color:#ffffff;stop-opacity:0.23529412"
         offset="0.50775999" />
      <stop
         id="stop4017"
         style="stop-color:#ffffff;stop-opacity:0.15686275"
         offset="0.83456999" />
      <stop
         id="stop4019"
         style="stop-color:#ffffff;stop-opacity:0.39215687"
         offset="1" />
    </linearGradient>
    <radialGradient
       cx="62.625"
       cy="4.625"
       r="10.625"
       id="radialGradient3045"
       gradientUnits="userSpaceOnUse"
       gradientTransform="matrix(2.1647059,0,0,0.7529402,-111.56471,36.517647)">
      <stop
         id="stop8840"
         style="stop-color:#000000;stop-opacity:1"
         offset="0" />
      <stop
         id="stop8842"
         style="stop-color:#000000;stop-opacity:0"
         offset="1" />
    </radialGradient>
    <linearGradient
       x1="71.204002"
       y1="6.2375998"
       x2="71.204002"
       y2="44.341"
       id="linearGradient3081"
       gradientUnits="userSpaceOnUse"
       gradientTransform="matrix(0.45945944,0,0,-0.45945944,-8.9590483,36.651293)">
      <stop
         id="stop4013-2"
         style="stop-color:#ffffff;stop-opacity:1"
         offset="0" />
      <stop
         id="stop4015-4"
         style="stop-color:#ffffff;stop-opacity:0.23529412"
         offset="0.50775999" />
      <stop
         id="stop4017-9"
         style="stop-color:#ffffff;stop-opacity:0.15686275"
         offset="0.83456999" />
      <stop
         id="stop4019-0"
         style="stop-color:#ffffff;stop-opacity:0.39215687"
         offset="1" />
    </linearGradient>
    <radialGradient
       cx="23.896"
       cy="3.99"
       r="20.396999"
       id="radialGradient3084"
       gradientUnits="userSpaceOnUse"
       gradientTransform="matrix(0,0.87965498,-1.161129,0,28.632502,-4.0838548)">
      <stop
         id="stop3244-4"
         style="stop-color:#f8b17e;stop-opacity:1"
         offset="0" />
      <stop
         id="stop3246-5"
         style="stop-color:#e35d4f;stop-opacity:1"
         offset="0.26238" />
      <stop
         id="stop3248-0"
         style="stop-color:#c6262e;stop-opacity:1"
         offset="0.66093999" />
      <stop
         id="stop3250-3"
         style="stop-color:#690b54;stop-opacity:1"
         offset="1" />
    </radialGradient>
    <linearGradient
       x1="7.0776"
       y1="3.0816"
       x2="7.0776"
       y2="45.368999"
       id="linearGradient3086"
       gradientUnits="userSpaceOnUse"
       gradientTransform="matrix(0.36857196,0,0,0.36857202,15.153867,16.154407)">
      <stop
         id="stop2492-0"
         style="stop-color:#791235;stop-opacity:1"
         offset="0" />
      <stop
         id="stop2494-6"
         style="stop-color:#c7321f;stop-opacity:1"
         offset="1" />
    </linearGradient>
    <linearGradient
       x1="71.204002"
       y1="6.2375998"
       x2="71.204002"
       y2="44.341"
       id="linearGradient3089"
       gradientUnits="userSpaceOnUse"
       gradientTransform="matrix(0.35135131,0,0,0.35135131,-1.204072,16.091108)">
      <stop
         id="stop4013-3"
         style="stop-color:#ffffff;stop-opacity:1"
         offset="0" />
      <stop
         id="stop4015-6"
         style="stop-color:#ffffff;stop-opacity:0.23529412"
         offset="0.50775999" />
      <stop
         id="stop4017-1"
         style="stop-color:#ffffff;stop-opacity:0.15686275"
         offset="0.83456999" />
      <stop
         id="stop4019-2"
         style="stop-color:#ffffff;stop-opacity:0.39215687"
         offset="1" />
    </linearGradient>
    <radialGradient
       cx="23.896"
       cy="3.99"
       r="20.396999"
       id="radialGradient3092"
       gradientUnits="userSpaceOnUse"
       gradientTransform="matrix(0,2.2874387,-3.0193786,0,36.046923,-50.628782)">
      <stop
         id="stop3244-3"
         style="stop-color:#ffffff;stop-opacity:1"
         offset="0" />
      <stop
         id="stop3246-1"
         style="stop-color:#dddddd;stop-opacity:1"
         offset="0.26238" />
      <stop
         id="stop3248-9"
         style="stop-color:#abacae;stop-opacity:1"
         offset="0.66093999" />
      <stop
         id="stop3250-4"
         style="stop-color:#89898b;stop-opacity:1"
         offset="1" />
    </radialGradient>
    <linearGradient
       x1="18.379"
       y1="44.98"
       x2="18.379"
       y2="3.0816"
       id="linearGradient3094"
       gradientUnits="userSpaceOnUse"
       gradientTransform="matrix(0.95842778,0,0,0.95842792,0.99732406,1.9984282)">
      <stop
         id="stop2492-8"
         style="stop-color:#505050;stop-opacity:1"
         offset="0" />
      <stop
         id="stop2494-4"
         style="stop-color:#aaaaaa;stop-opacity:1"
         offset="1" />
    </linearGradient>
    <linearGradient
       id="linearGradient3990">
      <stop
         id="stop3992"
         style="stop-color:#ffffff;stop-opacity:1"
         offset="0" />
      <stop
         id="stop3994"
         style="stop-color:#ffffff;stop-opacity:0"
         offset="1" />
    </linearGradient>
    <linearGradient
       x1="68.313301"
       y1="52.925316"
       x2="68.313301"
       y2="65.922028"
       id="linearGradient3101"
       xlink:href="#linearGradient3990"
       gradientUnits="userSpaceOnUse" />
    <linearGradient
       x1="71.204002"
       y1="6.2375998"
       x2="71.204002"
       y2="44.341"
       id="linearGradient3028"
       xlink:href="#linearGradient3403"
       gradientUnits="userSpaceOnUse"
       gradientTransform="translate(-47.733515,-0.3572398)" />
    <linearGradient
       x1="71.204002"
       y1="6.2375998"
       x2="71.204002"
       y2="44.341"
       id="linearGradient3031"
       xlink:href="#linearGradient3089"
       gradientUnits="userSpaceOnUse"
       gradientTransform="matrix(0.35135131,0,0,0.35135131,-1.204072,16.091108)" />
    <linearGradient
       x1="71.204002"
       y1="6.2375998"
       x2="71.204002"
       y2="44.341"
       id="linearGradient3034"
       xlink:href="#linearGradient3081"
       gradientUnits="userSpaceOnUse"
       gradientTransform="matrix(0.45945944,0,0,-0.45945944,-8.9590483,36.651293)" />
    <radialGradient
       cx="23.896"
       cy="3.99"
       r="20.396999"
       id="radialGradient3037"
       xlink:href="#radialGradient3084"
       gradientUnits="userSpaceOnUse"
       gradientTransform="matrix(0,0.87965498,-1.161129,0,28.632502,-4.0838548)" />
    <linearGradient
       x1="7.0776"
       y1="3.0816"
       x2="7.0776"
       y2="45.368999"
       id="linearGradient3039"
       xlink:href="#linearGradient3086"
       gradientUnits="userSpaceOnUse"
       gradientTransform="matrix(0.36857196,0,0,0.36857202,15.153867,16.154407)" />
    <radialGradient
       cx="23.896"
       cy="3.99"
       r="20.396999"
       id="radialGradient3042"
       xlink:href="#radialGradient3092"
       gradientUnits="userSpaceOnUse"
       gradientTransform="matrix(0,2.2874387,-3.0193786,0,36.046923,-50.628782)" />
    <linearGradient
       x1="18.379"
       y1="44.98"
       x2="18.379"
       y2="3.0816"
       id="linearGradient3044"
       xlink:href="#linearGradient3094"
       gradientUnits="userSpaceOnUse"
       gradientTransform="matrix(0.95842778,0,0,0.95842792,0.99732406,1.9984282)" />
    <radialGradient
       cx="62.625"
       cy="4.625"
       r="10.625"
       id="radialGradient3047"
       xlink:href="#radialGradient3045"
       gradientUnits="userSpaceOnUse"
       gradientTransform="matrix(2.1647059,0,0,0.7529402,-111.56471,36.517647)" />
  </defs>
  <metadata
     id="metadata3052">
    <rdf:RDF>
      <cc:Work
         rdf:about="">
        <dc:format>image/svg+xml</dc:format>
        <dc:type
           rdf:resource="http://purl.org/dc/dcmitype/StillImage" />
        <dc:title />
      </cc:Work>
    </rdf:RDF>
  </metadata>
  <path
     d="m 47,40 c 0,4.4183 -10.297,8 -23,8 -12.703,0 -23,-3.5817 -23,-8 0,-4.4183 10.297,-8 23,-8 12.703,0 23,3.5817 23,8 z"
     id="path8836"
     style="opacity:0.3;fill:url(#radialGradient3047);fill-rule:evenodd" />
  <path
     d="m 24,5.5026 c -10.758,0 -19.498,8.7396 -19.498,19.498 0,10.7584 8.7396,19.498 19.498,19.498 10.7584,0 19.498,-8.7396 19.498,-19.498 C 43.498,14.2422 34.7584,5.5026 24,5.5026 z"
     id="path2555-1"
     style="fill:url(#radialGradient3042);stroke:url(#linearGradient3044);stroke-width:1.00365412;stroke-linecap:round;stroke-linejoin:round;stroke-miterlimit:4;stroke-dasharray:none;stroke-dashoffset:0" />
  <path
     d="m 24,17.502 c -4.1372,0 -7.4982,3.361 -7.4982,7.4982 0,4.1372 3.361,7.4982 7.4982,7.4982 4.1372,0 7.4982,-3.361 7.4982,-7.4982 0,-4.1372 -3.361,-7.4982 -7.4982,-7.4982 z"
     id="path2555-3"
     style="fill:url(#radialGradient3037);stroke:url(#linearGradient3039);stroke-width:1.00365412;stroke-linecap:round;stroke-linejoin:round;stroke-miterlimit:4;stroke-dasharray:none;stroke-dashoffset:0" />
  <path
     d="m 32.5,25.001 c 0,-4.6946 -3.8059,-8.5003 -8.4999,-8.5003 -4.6945,0 -8.5001,3.8058 -8.5001,8.5003 0,4.6944 3.8056,8.4997 8.5001,8.4997 4.6941,0 8.4999,-3.8054 8.4999,-8.4997 z"
     id="path8655-6-1"
     style="opacity:0.5;color:#000000;fill:none;stroke:url(#linearGradient3034);stroke-width:1;stroke-linecap:round;stroke-linejoin:round;stroke-miterlimit:4;stroke-dasharray:none;stroke-dashoffset:0;enable-background:accumulate" />
  <path
     d="m 30.5,25 c 0,3.5896 -2.9104,6.5 -6.5,6.5 -3.5898,0 -6.5,-2.9104 -6.5,-6.5 0,-3.59 2.9102,-6.5 6.5,-6.5 3.5896,0 6.5,2.91 6.5,6.5 z"
     id="path8655-6"
     style="opacity:0.5;color:#000000;fill:none;stroke:url(#linearGradient3031);stroke-width:0.99999988;stroke-linecap:round;stroke-linejoin:round;stroke-miterlimit:4;stroke-dasharray:none;stroke-dashoffset:0;enable-background:accumulate" />
  <path
     d="M 42.5,24.999 C 42.5,35.217 34.217,43.5 24,43.5 13.783,43.5 5.5,35.217 5.5,24.999 5.5,14.782 13.7829,6.5 24,6.5 c 10.216,0 18.5,8.2822 18.5,18.499 z"
     id="path8655"
     style="opacity:0.8;color:#000000;fill:none;stroke:url(#linearGradient3028);stroke-width:1;stroke-linecap:round;stroke-linejoin:round;stroke-miterlimit:4;stroke-dasharray:none;stroke-dashoffset:0;enable-background:accumulate" />
  <path
     d="m 78.338799,64.349724 a 11.424408,11.424408 0 1 1 -22.848816,0 11.424408,11.424408 0 1 1 22.848816,0 z"
     transform="matrix(0.35012755,0,0,0.35012755,0.57142834,0.46938889)"
     id="path3220"
     style="opacity:0.4;color:#000000;fill:url(#linearGradient3101);fill-opacity:1;stroke:none;stroke-width:1;marker:none;visibility:visible;display:inline;overflow:visible;enable-background:accumulate" />
</svg>

<svg xmlns="http://www.w3.org/2000/svg" xmlns:xlink="http://www.w3.org/1999/xlink" viewBox="0 0 48 48"><defs><linearGradient x1="71.204" y1="6.238" x2="71.204" y2="44.341" id="b" gradientUnits="userSpaceOnUse" gradientTransform="translate(-47.734 -.357)"><stop offset="0" stop-color="#fff"/><stop offset=".508" stop-color="#fff" stop-opacity=".235"/><stop offset=".835" stop-color="#fff" stop-opacity=".157"/><stop offset="1" stop-color="#fff" stop-opacity=".392"/></linearGradient><radialGradient cx="62.625" cy="4.625" r="10.625" id="i" gradientUnits="userSpaceOnUse" gradientTransform="matrix(2.1647 0 0 .75294 -111.565 36.518)"><stop offset="0"/><stop offset="1" stop-opacity="0"/></radialGradient><linearGradient x1="71.204" y1="6.238" x2="71.204" y2="44.341" id="d" gradientUnits="userSpaceOnUse" gradientTransform="matrix(.45946 0 0 -.45946 -8.96 36.65)"><stop offset="0" stop-color="#fff"/><stop offset=".508" stop-color="#fff" stop-opacity=".235"/><stop offset=".835" stop-color="#fff" stop-opacity=".157"/><stop offset="1" stop-color="#fff" stop-opacity=".392"/></linearGradient><radialGradient cx="23.896" cy="3.99" r="20.397" id="e" gradientUnits="userSpaceOnUse" gradientTransform="matrix(0 .87965 -1.16113 0 28.633 -4.084)"><stop offset="0" stop-color="#f8b17e"/><stop offset=".262" stop-color="#e35d4f"/><stop offset=".661" stop-color="#c6262e"/><stop offset="1" stop-color="#690b54"/></radialGradient><linearGradient x1="7.078" y1="3.082" x2="7.078" y2="45.369" id="f" gradientUnits="userSpaceOnUse" gradientTransform="translate(15.154 16.154) scale(.36857)"><stop offset="0" stop-color="#791235"/><stop offset="1" stop-color="#c7321f"/></linearGradient><linearGradient x1="71.204" y1="6.238" x2="71.204" y2="44.341" id="c" gradientUnits="userSpaceOnUse" gradientTransform="translate(-1.204 16.09) scale(.35135)"><stop offset="0" stop-color="#fff"/><stop offset=".508" stop-color="#fff" stop-opacity=".235"/><stop offset=".835" stop-color="#fff" stop-opacity=".157"/><stop offset="1" stop-color="#fff" stop-opacity=".392"/></linearGradient><radialGradient cx="23.896" cy="3.99" r="20.397" id="g" gradientUnits="userSpaceOnUse" gradientTransform="matrix(0 2.28744 -3.01938 0 36.047 -50.63)"><stop offset="0" stop-color="#fff"/><stop offset=".262" stop-color="#ddd"/><stop offset=".661" stop-color="#abacae"/><stop offset="1" stop-color="#89898b"/></radialGradient><linearGradient x1="18.379" y1="44.98" x2="18.379" y2="3.082" id="h" gradientUnits="userSpaceOnUse" gradientTransform="translate(.997 1.998) scale(.95843)"><stop offset="0" stop-color="#505050"/><stop offset="1" stop-color="#aaa"/></linearGradient><linearGradient id="a"><stop offset="0" stop-color="#fff"/><stop offset="1" stop-color="#fff" stop-opacity="0"/></linearGradient><linearGradient x1="68.313" y1="52.925" x2="68.313" y2="65.922" id="r" xlink:href="#a" gradientUnits="userSpaceOnUse"/><linearGradient x1="71.204" y1="6.238" x2="71.204" y2="44.341" id="q" xlink:href="#b" gradientUnits="userSpaceOnUse" gradientTransform="translate(-47.734 -.357)"/><linearGradient x1="71.204" y1="6.238" x2="71.204" y2="44.341" id="p" xlink:href="#c" gradientUnits="userSpaceOnUse" gradientTransform="translate(-1.204 16.09) scale(.35135)"/><linearGradient x1="71.204" y1="6.238" x2="71.204" y2="44.341" id="o" xlink:href="#d" gradientUnits="userSpaceOnUse" gradientTransform="matrix(.45946 0 0 -.45946 -8.96 36.65)"/><radialGradient cx="23.896" cy="3.99" r="20.397" id="m" xlink:href="#e" gradientUnits="userSpaceOnUse" gradientTransform="matrix(0 .87965 -1.16113 0 28.633 -4.084)"/><linearGradient x1="7.078" y1="3.082" x2="7.078" y2="45.369" id="n" xlink:href="#f" gradientUnits="userSpaceOnUse" gradientTransform="translate(15.154 16.154) scale(.36857)"/><radialGradient cx="23.896" cy="3.99" r="20.397" id="k" xlink:href="#g" gradientUnits="userSpaceOnUse" gradientTransform="matrix(0 2.28744 -3.01938 0 36.047 -50.63)"/><linearGradient x1="18.379" y1="44.98" x2="18.379" y2="3.082" id="l" xlink:href="#h" gradientUnits="userSpaceOnUse" gradientTransform="translate(.997 1.998) scale(.95843)"/><radialGradient cx="62.625" cy="4.625" r="10.625" id="j" xlink:href="#i" gradientUnits="userSpaceOnUse" gradientTransform="matrix(2.1647 0 0 .75294 -111.565 36.518)"/></defs><path d="M47 40c0 4.418-10.297 8-23 8S1 44.418 1 40s10.297-8 23-8 23 3.582 23 8z" opacity=".3" fill="url(#j)" fill-rule="evenodd"/><path d="M24 5.503C13.242 5.503 4.502 14.243 4.502 25c0 10.76 8.74 19.5 19.498 19.5 10.758 0 19.498-8.74 19.498-19.5 0-10.758-8.74-19.497-19.498-19.497z" fill="url(#k)" stroke="url(#l)" stroke-width="1.004" stroke-linecap="round" stroke-linejoin="round"/><path d="M24 17.502A7.503 7.503 0 0 0 16.502 25 7.503 7.503 0 0 0 24 32.498 7.503 7.503 0 0 0 31.498 25 7.503 7.503 0 0 0 24 17.502z" fill="url(#m)" stroke="url(#n)" stroke-width="1.004" stroke-linecap="round" stroke-linejoin="round"/><path d="M32.5 25a8.5 8.5 0 1 0-17 0 8.5 8.5 0 0 0 17 0z" opacity=".5" color="#000" fill="none" stroke="url(#o)" stroke-linecap="round" stroke-linejoin="round"/><path d="M30.5 25a6.5 6.5 0 1 1-13 0 6.5 6.5 0 0 1 13 0z" opacity=".5" color="#000" fill="none" stroke="url(#p)" stroke-linecap="round" stroke-linejoin="round"/><path d="M42.5 25c0 10.217-8.283 18.5-18.5 18.5S5.5 35.217 5.5 25C5.5 14.78 13.783 6.5 24 6.5c10.216 0 18.5 8.282 18.5 18.5z" opacity=".8" color="#000" fill="none" stroke="url(#q)" stroke-linecap="round" stroke-linejoin="round"/><path d="M78.34 64.35a11.424 11.424 0 1 1-22.85 0 11.424 11.424 0 1 1 22.85 0z" transform="translate(.57 .47) scale(.35013)" opacity=".4" color="#000" fill="url(#r)" overflow="visible"/></svg>
